X:6
T:Jockie to the Fair
S:Bacon (RKS (RD))
A:Adderbury
O:English
R:Jig
P:A(AB)4
M:6/8
L:1/8
K:G
P:A
D | G2A B2c | d2g d2c | B>dB G>FG | A>cB A2D | 
G2A B2c | d2g d2g | f>ed A>B^c | d3 d2 |]
P:B
d | g2f g2d | cBc B2d | g2f g2d | cBc B2d | 
e2f gfe | d2c Bcd | edc B2A | G2F E2D | G2G GBd | 
e3 d2g | edc B2A | G2F E2D | G2g BcA | G3 G2 |]
%
P:B (original)
d | e2d e2d | cBc B2d | e2d e2d | cBc B2d | 
e2f gfe | d2B cde | edc B2A | G2F E2D | G2G GBd | 
e2e g2e | dBG Bcd | E2F G2A | Bcd BcA | G3 G2 |]
